X:1
T:Title
%%score { ( 1 3 ) | ( 2 4 ) }
L:1/8
M:6/4
K:G
V:1 treble nm="Grand Piano"
V:3 treble 
V:2 bass 
V:4 bass 
V:1
 z6 z4[Q:1/4=114] [B,D]2 | [B,D]4 [B,G]2 [DB]4 [DG]2 | E4 G2 D4 G2 | A4 D2 z2 G2 A2 | %4
[M:5/4] B2- B2- B6 |[M:1/4] B2 |[M:6/4] c4 d2 B4 G2 | A4 B2 G4 E2 | [B,D]2 B,2 [B,D]2 [DB]4 [CA]2 | %9
 [B,G]12 | d4 d2 B6 | B4 B2 G4 G2 |[M:3/4] A4 D2 | A2 B2 c2 |[M:6/4] B12 | d4 d2 B6 | B4 B2 G4 G2 | %17
[M:3/4] A4 D2 | B4 A2 |[M:5/4] [B,DG]2- [B,DG]2- [B,DG]6 |] %20
V:2
 z6 z4 [G,,G,]2 | [G,,G,]4 [G,,G,]2 [G,,G,]4 [B,,G,]2 | [C,G,C]4 [E,G,C]2 [G,B,]4 [G,B,]2 | %3
 [D,F,D]4 [C,F,]2 [B,,G,]4 [D,F,D]2 |[M:5/4] [G,D]2- [G,D]2- [G,D]6 |[M:1/4] [G,D]2 | %6
[M:6/4] [D,A,D]4 [D,B,D]2 [G,D]4 [G,B,]2 | [D,F,C]4 [D,F,D]2 [E,G,B,]4 [C,G,C]2 | %8
 [G,,G,]4 [G,,G,]2 [D,G,]4 [D,F,]2 | [G,,G,]12 | [G,B,G]4 [G,B,G]2 [G,DG]6 | %11
 [G,DG]4 [G,DG]2[K:bass] [G,B,D]4 [G,B,]2 |[M:3/4] [D,F,D]4 [D,F,]2 | [D,D]2- [D,G,D]2 [D,A,D]2 | %14
[M:6/4][K:treble] [G,D]12 | [G,B,G]4 [G,B,G]2 [G,DG]6 | [G,DG]4 [G,DG]2[K:bass] [G,B,D]4 [G,B,]2 | %17
[M:3/4] [D,F,D]4 [D,F,]2 | [D,G,D]4 [D,CD]2 |[M:5/4] G,,2- G,,2- G,,6 |] %20
V:3
 x12 | x12 | x12 | z6 .D6 |[M:5/4] x10 |[M:1/4] x2 |[M:6/4] x12 | x12 | x12 | x12 | x12 | x12 | %12
[M:3/4] x6 | x6 |[M:6/4] x12 | x12 | x12 |[M:3/4] x6 | x6 |[M:5/4] x10 |] %20
V:4
 x12 | x12 | x12 | x12 |[M:5/4] x10 |[M:1/4] x2 |[M:6/4] x12 | x12 | x12 | x12 | x12 | %11
 x6[K:bass] x6 |[M:3/4] x6 | F,2 z2 z2 |[M:6/4][K:treble] x12 | x12 | x6[K:bass] x6 |[M:3/4] x6 | %18
 x6 |[M:5/4] x10 |] %20

